assets/img/iconos/icono_bienestar.svg

<?xml version="1.0" encoding="utf-8"?>
<svg width="100px" height="100px" viewbox="0 0 100 100" version="1.1" xmlns:xlink="http://www.w3.org/1999/xlink" xmlns="http://www.w3.org/2000/svg">
  <defs>
    <path d="M0 0L99.6588 0L99.6588 99.6585L0 99.6585L0 0Z" transform="translate(0 0.34140795)" id="path_1" />
    <clipPath id="mask_1">
      <use xlink:href="#path_1" />
    </clipPath>
  </defs>
  <g id="icono_bienestar">
    <g id="Group-3">
      <path d="M0 0L99.6588 0L99.6588 99.6585L0 99.6585L0 0Z" transform="translate(0 0.34140795)" id="Clip-2" fill="none" fill-rule="evenodd" stroke="none" />
      <g clip-path="url(#mask_1)">
        <path d="M99.6588 49.8292C99.6588 77.3491 77.3495 99.6585 49.8296 99.6585C22.3094 99.6585 0 77.3491 0 49.8292C0 22.3094 22.3094 0 49.8296 0C77.3495 0 99.6588 22.3094 99.6588 49.8292" transform="translate(-7.2202165E-05 0.34140795)" id="Fill-1" fill="#DECCB5" fill-rule="evenodd" stroke="none" />
      </g>
    </g>
    <path d="M30.6531 33.1657C28.3256 30.0744 25.2058 27.6072 21.691 26.0368C24.996 23.3458 27.1119 19.2477 27.1119 14.6635C27.1119 6.57834 20.5339 0 12.4484 0C7.20144 0 2.5917 2.7722 0 6.92672C0.96065 7.29206 1.88267 7.73502 2.76101 8.24549C4.84585 5.10939 8.40903 3.03791 12.4484 3.03791C18.8588 3.03791 24.074 8.25307 24.074 14.6635C24.074 21.074 18.8588 26.2892 12.4484 26.2892C12.3325 26.2892 12.2177 26.2841 12.1022 26.2805C12.0083 27.3069 11.8318 28.3162 11.5762 29.3007C11.8646 29.3181 12.1556 29.3267 12.4484 29.3267C14.5809 29.3267 16.6069 28.8657 18.4365 28.0433C22.3022 29.2744 25.7718 31.7325 28.2264 34.9928C30.8159 38.4321 32.1845 42.5329 32.1845 46.8513C32.1845 47.6903 32.8646 48.37 33.7036 48.37C34.5422 48.37 35.2224 47.6903 35.2224 46.8513C35.2224 41.8682 33.6422 37.1361 30.6531 33.1657" transform="translate(46.95117 19.626099)" id="Fill-4" fill="#FFFFFF" fill-rule="evenodd" stroke="none" />
    <path d="M11.148 14.6632C11.148 8.25271 16.3632 3.03755 22.774 3.03755C29.1845 3.03755 34.3996 8.25271 34.3996 14.6632C34.3996 21.0736 29.1845 26.2892 22.774 26.2892C16.3632 26.2892 11.148 21.0736 11.148 14.6632M40.9787 33.1653C38.6513 30.074 35.5314 27.6069 32.0166 26.0368C35.3217 23.3458 37.4375 19.2477 37.4375 14.6632C37.4375 6.57798 30.8596 0 22.774 0C14.6888 0 8.11047 6.57798 8.11047 14.6632C8.11047 19.2462 10.2253 23.3437 13.5289 26.0343C5.34946 29.6534 0 37.7437 0 46.8513C0 47.6899 0.680144 48.37 1.51877 48.37C2.3574 48.37 3.03755 47.6899 3.03755 46.8513C3.03755 38.2643 8.5213 30.7181 16.6827 28.0726C16.7141 28.0625 16.7437 28.0498 16.774 28.0379C18.6069 28.8632 20.6368 29.3267 22.774 29.3267C24.9065 29.3267 26.9325 28.8653 28.7621 28.043C32.6278 29.2744 36.0971 31.7321 38.5516 34.9924C41.1412 38.4321 42.5101 42.5329 42.5101 46.8513C42.5101 47.6899 43.1903 48.37 44.0289 48.37C44.8675 48.37 45.548 47.6899 45.548 46.8513C45.548 41.8682 43.9679 37.1357 40.9787 33.1653" transform="translate(17.484863 28.751465)" id="Fill-6" fill="#FFFFFF" fill-rule="evenodd" stroke="none" />
  </g>
</svg>

<svg xmlns="http://www.w3.org/2000/svg" xmlns:xlink="http://www.w3.org/1999/xlink" viewBox="0 0 100 100"><defs><path id="a" d="M0 0h99.659v99.659H0V0z" transform="translate(0 .341)"/><clipPath id="b"><use xlink:href="#a"/></clipPath></defs><path fill="none" fill-rule="evenodd" stroke="none" d="M0 0h99.659v99.659H0V0z" transform="translate(0 .341)"/><g clip-path="url(#b)"><path fill="#DECCB5" fill-rule="evenodd" stroke="none" d="M99.659 49.83c0 27.52-22.31 49.829-49.83 49.829S0 77.349 0 49.829 22.31 0 49.83 0s49.829 22.31 49.829 49.83" transform="translate(0 .341)"/></g><path fill="#FFF" fill-rule="evenodd" stroke="none" d="M30.653 33.166a23.018 23.018 0 0 0-8.962-7.13c3.305-2.69 5.42-6.788 5.42-11.373C27.112 6.579 20.535 0 12.449 0 7.201 0 2.592 2.772 0 6.927c.96.365 1.883.808 2.761 1.318 2.085-3.136 5.648-5.207 9.687-5.207 6.41 0 11.626 5.215 11.626 11.626 0 6.41-5.215 11.625-11.626 11.625-.116 0-.23-.005-.346-.009a18.847 18.847 0 0 1-.526 3.02 14.568 14.568 0 0 0 6.86-1.257 19.903 19.903 0 0 1 9.79 6.95 19.564 19.564 0 0 1 3.959 11.858 1.519 1.519 0 0 0 3.037 0 22.58 22.58 0 0 0-4.569-13.685" transform="translate(46.951 19.626)"/><path fill="#FFF" fill-rule="evenodd" stroke="none" d="M11.148 14.663c0-6.41 5.215-11.625 11.626-11.625 6.41 0 11.626 5.215 11.626 11.625S29.185 26.29 22.774 26.29c-6.41 0-11.626-5.215-11.626-11.626m29.83 18.502a23.014 23.014 0 0 0-8.961-7.128c3.305-2.691 5.42-6.79 5.42-11.374C37.438 6.578 30.86 0 22.774 0 14.689 0 8.11 6.578 8.11 14.663c0 4.583 2.115 8.68 5.419 11.371A22.707 22.707 0 0 0 0 46.851a1.519 1.519 0 0 0 3.038 0 19.685 19.685 0 0 1 13.645-18.778c.031-.01.06-.023.091-.035a14.576 14.576 0 0 0 6 1.289 14.57 14.57 0 0 0 5.988-1.284 19.904 19.904 0 0 1 9.79 6.95A19.565 19.565 0 0 1 42.51 46.85a1.519 1.519 0 0 0 3.038 0 22.58 22.58 0 0 0-4.57-13.686" transform="translate(17.485 28.751)"/></svg>
